packages/sources/icons/src/vitamix/firefox-line.svg

<svg width="16" height="16" viewBox="0 0 16 16" fill="none" xmlns="http://www.w3.org/2000/svg">
<path fill-rule="evenodd" clip-rule="evenodd" d="M14.6667 8C14.6667 4.318 11.682 1.33333 8.00001 1.33333C6.60668 1.33333 5.17001 1.86533 4.44668 2.58733C4.96468 2.28066 5.59201 2.06799 6.32934 1.94999C7.99734 1.70666 9.75068 2.24266 10.984 3.42C11.2603 3.68234 11.5031 3.97792 11.7067 4.29999C12.5227 5.62266 12.4453 7.28733 11.81 8.268C10.884 9.69266 8.81668 10.1833 7.53534 8.936C7.10552 8.51881 6.85859 7.94824 6.84868 7.34933C6.84334 7.06266 6.90068 6.77866 7.01601 6.516C7.06134 6.41266 7.36801 5.82599 7.50668 5.85533C7.15468 5.78066 6.49734 5.926 6.03601 6.61266C5.62268 7.22933 5.64534 8.178 5.90134 8.85133C5.73868 8.51933 5.62868 8.16333 5.57534 7.79666C5.24668 5.57799 6.74001 3.684 8.11068 3.21266C7.37201 2.56799 5.51734 2.61333 4.14001 3.62599C3.33668 4.21733 2.76268 5.05533 2.46001 6.05533C2.50468 5.49333 2.71801 4.65533 3.15334 3.79999C2.74201 4.01333 2.23068 4.63666 1.92001 5.26266C1.54268 6.09733 1.33334 7.02399 1.33334 8C1.33334 11.682 4.31801 14.6667 8.00001 14.6667C11.682 14.6667 14.6667 11.682 14.6667 8ZM4.58312 5.13677C4.58321 5.13674 4.58331 5.1367 4.58341 5.13667V5.136C4.58331 5.13626 4.58321 5.13651 4.58312 5.13677ZM4.58312 5.13677C3.0813 5.65754 2.24945 7.25014 2.86408 9.44333C3.49511 11.6847 5.50669 13.2581 7.83408 13.3307L8.00008 13.3333C10.8173 13.3335 13.1487 11.1425 13.3234 8.33067L13.3294 8.18933C13.2427 8.422 13.1407 8.63867 13.0207 8.84267L12.9274 8.994C11.5247 11.1533 8.47341 11.7107 6.60741 9.89267C6.35357 9.64641 6.13747 9.36403 5.96608 9.05467L5.89541 8.92067C4.73808 8.66267 4.17274 8.03667 4.20008 7.04267C4.21807 6.38228 4.35329 5.73655 4.58312 5.13677Z" fill="#001018"/>
</svg>

<svg width="16" height="16" fill="none" xmlns="http://www.w3.org/2000/svg"><path fill-rule="evenodd" clip-rule="evenodd" d="M14.667 8A6.667 6.667 0 0 0 8 1.333c-1.393 0-2.83.532-3.553 1.254.518-.306 1.145-.519 1.882-.637 1.668-.243 3.422.293 4.655 1.47.276.262.52.558.723.88.816 1.323.738 2.987.103 3.968-.926 1.425-2.993 1.915-4.275.668a2.263 2.263 0 0 1-.686-1.587 1.98 1.98 0 0 1 .167-.833c.045-.103.352-.69.49-.66-.351-.075-1.009.07-1.47.757-.413.616-.39 1.565-.135 2.238a3.563 3.563 0 0 1-.326-1.054C5.247 5.578 6.74 3.684 8.111 3.213c-.739-.645-2.594-.6-3.971.413-.803.591-1.377 1.43-1.68 2.43.045-.563.258-1.4.693-2.256-.411.213-.922.837-1.233 1.463A6.667 6.667 0 1 0 14.667 8zM4.583 5.137v-.001zm0 0c-1.502.52-2.334 2.113-1.719 4.306a5.336 5.336 0 0 0 4.97 3.888l.166.002a5.333 5.333 0 0 0 5.323-5.002l.006-.142c-.086.233-.188.45-.308.654l-.094.151c-1.402 2.16-4.454 2.717-6.32.899a3.595 3.595 0 0 1-.64-.838l-.072-.134C4.738 8.663 4.173 8.037 4.2 7.043c.018-.66.153-1.306.383-1.906z" fill="#001018"/></svg>
